X:1
T:Dedens Tournay
T:Dedens Tournay
T:Thomas Crecquillon
C:Thomas Crecquillon
%%score [ 1 2 3 4 ]
L:1/8
Q:1/4=80
M:2/2
K:F
V:1 treble nm="Superius" snm="S"
V:2 treble nm="Altus" snm="A"
V:3 treble-8 nm="Tenor" snm="T"
V:4 bass nm="Bass" snm="B"
V:1
 F4 B2 c2 | d3 e f2 e2 | dc f4 e2 | f3 e d2 c2- | c2 B2 c4 | F2 FF B4 | A4 F2 FF | c2 A2 B2 c2 | %8
w: De- dens Tour-|nay, _ _ vil-|le jo- li- *||* * e|ung jour pas- sant,|_ ung jour pas-|sant me- lan- co-|
 d2 c2 A2 AA | B2 c2 A2 B2 | c2 d4 c2- |"^-natural" c2 B2 c4 | z2 G2 A2 B2 | c2 B2 A2 A2 | %14
w: li- e, ung jour pas-|sant me- lan- co-|li- * *|* * e,|je prins al-|le- an- ce nou-|
 GA BG A3 G | FE G4 F2- | F2 E2 F4- | F4 z2 F2 | A2 B2 c2 d2 | e2 f2 e2 d2- | d2 c4 B2 | c4 z2 c2 | %22
w: vel- * * * * *||* * le|_ à|la plus gen- te|da- moi- sel- *||le qu'il|
 c2 B2 c2 F2 | G2 A2 B4 | A4 z2 A2 | A2 G2 F2 B2 | A2 G2 F4 | E2 c2 cBAc | BA GF G A2 G | A4 z4 | %30
w: soit, je le vous|cer- ti- fi-|e, d'hon-|nes- te- té, el-|l'est sai- si-|e, et croy, se- lon ma|fan- * * * ta- si- *|e,|
 z8 | z2 c2 c2 c2 | A2 d2 c2 B2- | B2 A4 G2 | A2 F2 B2 c2 | d3 e f2 e2 | dc f4 e2 | f3 e d2 c2- | %38
w: |qu'il m'en soit|gue- re de plus|_ bel- *|le de- dens Tour-|nay, _ _ vil-|le jo- li- *||
 c2 B2 c4 | F2 FF B4 | A2 F2 B2 c2 | d2 f2 e2 d2 | c2 B2 A2 G2- | G2 F4 E2 | F8 |] %45
w: * * e,|vil- le jo- li-|e, de- dens Tour-|nay, vil- le jo-|li- * * *||e.|
V:2
 z4 z2 C2 | F2 G2 A2 c2 | B2 A2 G4 | F2 A3 F G2 | A2 GF E4 | z2 C2 D2 B,2 | CCCC F2 D2 | %7
w: De-|dens Tour- nay, vil-|le jo- li-||* * * e,|vil- le jo-|li- e, ung jour pas- sant|
 E2 F2 G2 F2- | FD E2 F2 F2 | G2 A2 D4 | z2 A2 A2 F2 | G4 E2 C2 | D2 E2 F3 G | A2 GF E2 F2 | %14
w: me- lan- * *|* * * * co-|li- * e,|je prins al-|le- an- ce|nou- vel- * *||
 D4 C2 A,2 | C2 D4 B,2 | C4 A,2 F,2 | A,3 B, C2 B,2 | A,2 F,2 G,2 D2 | G2 F2 G2 A2 | G2 F2 G4 | %21
w: ||* le à|la plus gen- te|da- moi- sel- *|||
 E2 A2 A2 G2 | A2 G2 F3 E | DC F4 E2 | F4 z2 F2 | F2 E2 D2 F2 | F2 E2 D4 | C4 F2 FE | DFED C F2 E | %29
w: le qu'il soit, je|le vous cer- ti-|fi- * * *|e,, d'hon-|nes- te- té, el-|l'est sai- si-|e, et croy se-|lon ma fan- ta- si- * *|
 F2 z2 F2 GF | EGFE DC F2- | F2 E2 F2 F2 | F3 G A2 G2 | E2 F2 D2 E2 | F4 z2 C2 | F2 G2 A2 c2 | %36
w: e, et croy, se|lon ma fan- ta si _ _|_ _ e, qu'il|m'en soit gue- re|de plus bel- *|le de-|dens Tour- nay, vil-|
 B2 A2 G4 | F2 A3 F G2 | A2 GF E4 | z2 C2 D2 B,2 | C2 D4 E2 | F2 D2 G4 | z2 F4 D2 | E2 D2 C4 | %44
w: le jo- li-||* * * e,|de- dens Tour-|nay, vil- le|jo- li- e,|vil- le|jo- li- *|
 C8 |] %45
w: e.|
V:3
 z8 | z8 | z2 F2 B2 c2 | d3 e f2 e2 | d4 cdec | de f4 e2 | f4 z4 | z8 | z2 c2 cc f2 | d2 e2 f2 g2 | %10
w: ||De- dens Tour-|nay, _ _ vil-|le jo- * * *|li- * * *|e,||ung jour pas- sant|me- lan- co- li-|
 e2 f3 e c2 | d4 c2 G2 | A2 B2 c2 B2 | A2 d4 c2- | c2 B2 c3 B | AG B3 AGF | G4 F4 | z2 F2 A2 B2 | %18
w: e, je prins al-|le- an- ce|nou- vel- * *||||* le|à la plus|
 c2 d2 e2 f2 | e2 d2 c2 A2 | B2 c2 d4 | c2 f2 f2 e2 | f2 d2 c2 d2- | d2 c4 B2 | c4 c4 | %25
w: gen- te da- moi-|sel- * * *||le qu'il soit, je|le vous cer- ti-|* fi- *|e, d'hon-|
 c2 c2 A2 d2 | c3 B A2 B2 | G4 F4 | z4 z2 c2 | cBAc BA G2 | cB AG BA GF | G4 F2 A2 | c2 B2 A2 B2 | %33
w: nes- te- té, el-|l'est _ _ sai-|si- e,|et|croy, se- lon ma fan- ta si-||* e, qu'il|m'en soit gue- re|
 c2 d2 B4 | c2 d2 B2 f2- | fe d2 c4 | z2 F2 B2 c2 | d3 e f2 e2 | d4 cd ec | de f4 e2 | %40
w: de plus bel-|le de- dens Tour-|* * * nay,|vil- le jo-|li- * * *|||
 f3 e d2 c2- | c2 B2 c2 B2 | c2 d2 c2 B2- | B2 A2 G4 | F8 |] %45
w: |* * e, vil-|le jo- li- *||e.|
V:4
 z8 | z8 | z8 | z4 z2 C,2 | F,2 G,2 A,2 C2 | B,2 A,2 G,4 | F,4 D,2 D,D, | A,2 A,2 G,2 A,2 | %8
w: |||De-|dens Tour- nay, vil-|le jo- li-|e, ung jour pas-|sant me- lan- co-|
 B,2 A,2 F,2 F,F, | B,2 A,4 G,2 | A,2 F,2 A,4 | G,4 z2 C,2 | F,2 G,2 F,2 B,,2 | F,2 G,2 A,2 F,2 | %14
w: li- e, ung jour pas-|sant me- lan-|co- * li-|e, je|prins al- le- an-|ce nou- vel- *|
 G,4 z2 F,2- | F,2 B,,2 D,4 | C,4 F,4 | z2 F,2 F,2 B,,2 | F,2 D,2 C,2 B,,2 | C,2 D,2 E,2 F,2 | %20
w: le,, nou-|* vel- *|* le|à la plus|gen- te da- moi-|sel- * * *|
 G,2 A,2 G,4 | A,2 F,2 C2 C2 | F,2 G,2 A,2 B,2- | B,2 A,2 G,4 | F,4 z2 F,2 | F,2 C,2 D,2 B,,2 | %26
w: |le qu'il soit, je|le vous cer- ti-|* fi- *|e,, d'hon-|nes- te- té, el-|
 F,2 C,2 D,2 B,,2 | C,4 z4 | z8 | F,2 F,E, D,F,E,D, | C,2 D,2 B,,2 D,2 | C,4 z2 F,2 | %32
w: l'est sai- si- *|e,||et croy, se- lon ma fan- ta|si- * * *|e, qu'il|
 F,2 B,,2 F,2 G,2 | A,2 F,2 G,4 | F,2 B,2 G,2 A,2 | B,4 A,4 | z8 | z4 z2 C,2 | F,2 G,2 A,2 C2 | %39
w: m'en soit gue- re|de plus bel-|le de- dens Tour-|* nay,||vil-|le jo- li- *|
 B,2 A,2 G,4 | F,2 D,2 G,2 E,2 | D,4 C,2 G,2 | A,2 B,2 F,2 G,2 | E,2 F,2 C,4 | F,8 |] %45
w: ||* e, vil-|le jo- li- *||e.|

